build/flags/Denmark.svg

<svg xmlns="http://www.w3.org/2000/svg" fill="none" viewBox="0 0 28 28" focusable="false"><defs><filter id="Denmark_svg__a"><feColorMatrix values="0 0 0 0 1 0 0 0 0 1 0 0 0 0 1 0 0 0 1 0"/></filter></defs><mask id="Denmark_svg__b" width="28" height="20" x="0" y="4" maskUnits="userSpaceOnUse"><g filter="url(#Denmark_svg__a)"><rect width="28" height="20" y="4" fill="#FFF" rx="3"/><rect width="27.5" height="19.5" x=".25" y="4.25" stroke="#F5F5F5" stroke-width=".5" rx="2.75"/></g></mask><path fill="none" d="M0 0H28V28H0z"/><rect width="28" height="20" y="4" fill="#FFF" rx="3"/><rect width="27.5" height="19.5" x=".25" y="4.25" stroke="#D6D8DD" stroke-width=".5" rx="2.75"/><g mask="url(#Denmark_svg__b)"><path fill="#EF264D" fill-rule="evenodd" d="M28 6C28 4.89543 27.1046 4 26 4L12 4L12 12L28 12L28 6ZM28 16L12 16L12 24L26 24C27.1046 24 28 23.1046 28 22L28 16ZM8 24L8 16L0 16L0 22C0 23.1046 0.89543 24 2 24L8 24ZM0 12L8 12L8 4L2 4C0.89543 4 0 4.89543 0 6L0 12Z"/><path d="M28 6C28 4.89543 27.1046 4 26 4L12 4L12 12L28 12L28 6ZM28 16L12 16L12 24L26 24C27.1046 24 28 23.1046 28 22L28 16ZM8 24L8 16L0 16L0 22C0 23.1046 0.89543 24 2 24L8 24ZM0 12L8 12L8 4L2 4C0.89543 4 0 4.89543 0 6L0 12Z"/></g></svg>

<svg xmlns="http://www.w3.org/2000/svg" fill="none" viewBox="0 0 28 28" focusable="false"><path fill="none" d="M0 0h28v28H0z"/><rect width="28" height="20" y="4" fill="#FFF" rx="3"/><rect width="27.5" height="19.5" x=".25" y="4.25" stroke="#D6D8DD" stroke-width=".5" rx="3"/><mask id="Denmark_svg__a" width="28" height="20" x="0" y="4" mask-type="alpha" maskUnits="userSpaceOnUse"><rect width="28" height="20" y="4" fill="#FFF" rx="3"/><rect width="27.5" height="19.5" x=".25" y="4.25" stroke="#F5F5F5" stroke-width=".5" rx="3"/></mask><g mask="url(#Denmark_svg__a)"><mask id="Denmark_svg__b" fill="#fff"><path fill-rule="evenodd" d="M12 4h14a2 2 0 0 1 2 2v6H12zM8 4H2a2 2 0 0 0-2 2v6h8zM0 16v6a2 2 0 0 0 2 2h6v-8zm12 8h14a2 2 0 0 0 2-2v-6H12z" clip-rule="evenodd"/></mask><path fill="#EF264D" fill-rule="evenodd" d="M12 4h14a2 2 0 0 1 2 2v6H12zM8 4H2a2 2 0 0 0-2 2v6h8zM0 16v6a2 2 0 0 0 2 2h6v-8zm12 8h14a2 2 0 0 0 2-2v-6H12z" clip-rule="evenodd" mask="url(#Denmark_svg__b)"/></g></svg>
